X:270
T:Tommy Peoples'
M:C|
L:1/8
R:reel
D:Altan: Island Angel
Z:Devin McCabe
K:BMin
~B3c dBAF|~B3c dfed|~B3c dcdB|1ABde fded:|2ABde fdec|
!|:dfaf bfaf|dfaf g2fg|afge dcdB|1ABde fdec:|2ABde fded||
